X: 158
T: Ağlatırlar Güldürürler
C: Dede Efendi
O: Turkey
F: http://compmusic.upf.edu/node/140
N: ussak--sarki--aksak--aglatirlar_guldururler--dede_efendi
N: makam= ussak
N: form= sarki
N: usul= aksak = 9/8
M: 9/8
L: 1/16
K: C _2/4B   
Q: 1/4=132
%%MIDI tuningsystem comma53
A4 ^F2G2 A4 d4 _1/4B2 | c2 c_1/4BBA AGA4d4B2  | \
w:   |   | 
c2c_1/4B BAAG A2B2 cdcB BA | 
w:   | 
AG ^FEDE FGA4d4_1/4B2  | c2c_1/4B BAAG A4 d4 B2 | 
w:   |   | 
c2 c_1/4BBA AGA2 B2cd cBBA  | A6c2 _1/4B2c2 A4 z2 | 
w:   |   | 
A3G^F2 G2A4A6  | d3c d2e2 d2e2 c4 _1/4B^A | \
w:   |   | 
_1/4B2 d4 f2e2 d2c4B2  | 
w:   | 
_1/4BABc B2A2 A4 A6 | A3G^F2 G2A2 AGA4A2  | \
w:   |   | 
d3c d2e2 d2e2 c4 _1/4B^A | 
w:   | 
_1/4B2 d4 f2e2 d2c4B2  | _1/4BABc B2A2 A4 d3/2e/dc Bc | \
w:   |   | 
d2 z2c2 d2e4e6  | 
w:   | 
e3g ^f2g2 e2d2 d2_7/8ed c2 | z2 d4 f2e2 d2c4_1/4B2  | \
w:   |   | 
_1/4BABc B2A2 A4 d3/2e/dc Bc | 
w:   | 
d2 z2c2 d2e4e6  | e3g ^f2g2 e2d2 d2_7/8ed c2 | \
w:   |   | 
z2 d4 f2e2 d2c4_1/4B2  | 
w:   | 
_1/4BABc B2A2 A4 a3/2_1/4b/ag ^fg | \
w:   | 
a2 z2^f2 g2a4a6  | a3c' _1/4b2a2 g2f2 e4 d2 | 
w:   |   | 
z2 d4 f2e2 d2c4_1/4B2  | _1/4BABc B2A2 A4 a3/2_1/4b/ag ^fg | \
w:   |   | 
a2 z2^f2 g2a4a6  | 
w:   | 
a3c' _1/4b2a2 g2f2 e4 d2 | z2 d4 _7/8e2e2 d2c4_1/4B2  | \
w:   |   | 
c8 c4 z4 z2 | g8g4a2 g2f2  | 
w:   |   | 
e2g3fe2 g2f2 g2f4 | e2 g3f e2g2 f2g2 f4  | \
w:   |   | 
e2g^f gag2 f2_7/8e3dc4 | 
w:   | 
z2 G2c4d2 _7/8e2d2 c4  | _1/4B2c3d_7/8e2 ^f2g2 a2gf g4 z2c2 c4 d2e2 d2c4cB c6G2 A2B2 c4 z2c8c4B4A2 A3c B2AB AGG^F G4 z2z4c2 d2=e4e6 g2f2 g2e2 _7/8e2d2 d2 | 
w:   |   | 
^f2 _7/8edc2 c2_1/4B4BA A4  | g2^f2 g2e6 edd4 | \
w:   |   | 
_7/8e2 d2c2 d2e^f d2c2 c2_1/4B2  | 
w:   | 
_1/4B4 c2BA A8 A4 A4 z2|
w:   | 


